static/logos/paddle-glyph-color.svg

<svg width="40" height="50" viewBox="0 0 40 50" fill="none" xmlns="http://www.w3.org/2000/svg">
<g clip-path="url(#clip0_1_1743)">
<path fill-rule="evenodd" clip-rule="evenodd" d="M7.97872 2.60479V5.20957L16.6223 5.39734C24.9511 5.57819 25.3574 5.63883 27.7782 7.06223C35.8915 11.8314 35.1016 24.8346 26.4798 28.4303C24.9819 29.0553 22.4995 29.2553 16.2404 29.2553H7.97872V39.6277V50H10.9043H13.8298V42.342V34.684L20.3457 34.4702C25.8723 34.2888 27.2654 34.0617 29.5213 32.9723C33.2755 31.159 36.9053 27.2649 38.3096 23.5436C40.667 17.2957 38.9665 9.6984 34.2213 5.28085C29.5734 0.953724 26.2064 0 15.5798 0H7.97872V2.60479ZM7.97872 9.14043C7.97872 9.48723 7.5 10.7596 6.91489 11.9681C5.8617 14.1441 2.72021 16.4894 0.858511 16.4894C0.354786 16.4894 0 16.9287 0 17.5532C0 18.2707 0.354789 18.617 1.09043 18.617C3.88617 18.617 6.96755 21.5351 7.68883 24.867C8.22766 27.3543 9.15213 26.991 10.3723 23.8122C11.5197 20.8229 14.0378 18.617 16.3021 18.617C17.1984 18.617 17.5532 18.3154 17.5532 17.5532C17.5532 16.9287 17.1984 16.4894 16.6947 16.4894C14.833 16.4894 11.6915 14.1441 10.6383 11.9681C10.0532 10.7596 9.57447 9.48723 9.57447 9.14043C9.57447 8.79415 9.21543 8.51064 8.7766 8.51064C8.33777 8.51064 7.97872 8.79415 7.97872 9.14043Z" fill="#FDD82F"/>
</g>
<defs>
<clipPath id="clip0_1_1743">
<rect width="39.8936" height="50" fill="white"/>
</clipPath>
</defs>
</svg>

<svg xmlns="http://www.w3.org/2000/svg" width="51.2" height="64" fill="none" viewBox="0 0 40 50"><g clip-path="url(#a)"><path fill="#FDD82F" fill-rule="evenodd" d="M7.979 2.605V5.21l8.643.187c8.33.181 8.735.242 11.156 1.665 8.114 4.77 7.324 17.773-1.298 21.368-1.498.625-3.98.825-10.24.825H7.98V50h5.851V34.684l6.516-.214c5.526-.181 6.92-.408 9.175-1.498 3.755-1.813 7.384-5.707 8.789-9.428 2.357-6.248.657-13.846-4.089-18.263C29.573.954 26.206 0 15.58 0H7.979v2.605Zm0 6.535c0 .347-.479 1.62-1.064 2.828C5.862 14.144 2.72 16.49.859 16.49c-.504 0-.859.44-.859 1.064 0 .718.355 1.064 1.09 1.064 2.796 0 5.878 2.918 6.599 6.25.539 2.487 1.463 2.124 2.683-1.055 1.148-2.99 3.666-5.195 5.93-5.195.896 0 1.251-.302 1.251-1.064 0-.624-.355-1.064-.858-1.064-1.862 0-5.004-2.345-6.057-4.52-.585-1.21-1.064-2.482-1.064-2.829 0-.346-.359-.63-.797-.63-.44 0-.798.284-.798.63Z" clip-rule="evenodd"/></g><defs><clipPath id="a"><path fill="#fff" d="M0 0h39.894v50H0z"/></clipPath></defs></svg>
